assets/icons/bookmark_outline.svg

<svg width="21" height="20" viewBox="0 0 21 20" fill="none" xmlns="http://www.w3.org/2000/svg">
<g clip-path="url(#clip0_553_1589)">
<path d="M4.21338 14.9846V8.09018C4.21338 5.06237 4.21338 3.54847 5.18969 2.60785C6.166 1.66724 7.73735 1.66724 10.88 1.66724C14.0227 1.66724 15.5941 1.66724 16.5704 2.60785C17.5467 3.54847 17.5467 5.06237 17.5467 8.09018V14.9846C17.5467 16.9062 17.5467 17.8669 16.9027 18.2108C15.6555 18.8767 13.316 16.6549 12.205 15.9859C11.5607 15.5979 11.2385 15.4039 10.88 15.4039C10.5215 15.4039 10.1994 15.5979 9.55505 15.9859C8.44405 16.6549 6.1046 18.8767 4.85742 18.2108C4.21338 17.8669 4.21338 16.9062 4.21338 14.9846Z" stroke="white" stroke-width="1.5" stroke-linecap="round" stroke-linejoin="round"/>
</g>
<defs>
<clipPath id="clip0_553_1589">
<rect width="20" height="20" fill="white" transform="translate(0.880127 0.000488281)"/>
</clipPath>
</defs>
</svg>

<svg xmlns="http://www.w3.org/2000/svg" width="21" height="20" fill="none" viewBox="0 0 21 20"><g clip-path="url(#a)"><path stroke="#fff" stroke-linecap="round" stroke-linejoin="round" stroke-width="1.5" d="M4.213 14.985V8.09c0-3.028 0-4.542.977-5.482.976-.94 2.547-.94 5.69-.94s4.714 0 5.69.94c.977.94.977 2.454.977 5.482v6.895c0 1.921 0 2.882-.644 3.226-1.247.666-3.587-1.556-4.698-2.225-.644-.388-.966-.582-1.325-.582s-.68.194-1.325.582c-1.11.669-3.45 2.89-4.698 2.225-.644-.344-.644-1.305-.644-3.226"/></g><defs><clipPath id="a"><path fill="#fff" d="M.88 0h20v20h-20z"/></clipPath></defs></svg>
